X:56
T:Ballydesmond Polka \#1, The
M:2/4
Z:All three of the Ballydesmond polkas are from playing of Denis Murphy and 
Z:Julia Clifford.  They are usually played as a set.
Z:Boston 
R:polka
E:13
K:G
A3B A2G2|E2F2 G2E2|A3B A2G2|A2d2 dedc|A3B A2G2|E2F2 G4|A2B2 c2E2|E2D2 D4:|
A2d2 d4|e2d2 c4|e2d2 c2d2|e2a2 abag|e2d2 c4|e2d2 c4|A3B c2d2|e2f2g3f|e2d2 c2d2|e2A2 c2d2|e3d c2d2|e2a2 abag|efg2 d3B|c2e2 d3B|A2B2 c2E2|E2D2 D4||
<end>
<start>
